X: 159
T: The Dutch Trot
%R: reel
B: Urbani & Liston "A Selection of Scotch, English Irish, and Foreign Airs", Edinburgh 1800, p.61 #1
F: http://www.vwml.org/browse/browse-collections-dance-tune-books/browse-urbani1800
Z: 2014 John Chambers <jc:trillian.mit.edu>
M: C
L: 1/16
K: D
FG |\
AF3G3B A2F2 d2A2 | G2BA GFED F2E2-E2 FG |\
AF3G3B A2F2 d2F2 | G2AB ABAG F2D2-D2 ||
FG |\
AF3G3B A2F2 d2A2 | G2BA GFED F2E2-E2 FG |\
AGFA GABG ABcA d3f | gabg abag f2d2d2 |]
fg |\
a2f2d2ef g2e2f2d2 | g2ba gfed c2e2-e2 fg |\
a2f2d2ef g2e2f2d2 | g2ab abag f2d2-d2 ||
fg |\
a2f2d2ef g2e2f2d2 | g2ba gfed c2e2-e2 fg |\
agfe fedc dcBA BAGF | GABG ABAG F2D2-D2 |]

%%sep 1 1 500
%%sep 1 1 500
